X:31
T: Szóljál, dudám a lagziba...
K: F
M: 4/4
L: 1/4
gfed | dgf2 | 
gfed | cdB2 | 
cBAG | GAB2 | 
cBAG | B/A/G G2 | 

